X: 13689
T: For All The Cows
R: reel
M: 4/4
K: Dmajor
EF AB A2 FA|B3 F FE ED|E2 (3EEE ED EF|GF GA GF ED|
EF AB A d2 c|B3 d FE ED|GF GA GF DA'-|A'B' B'A' GF ED|
EF AB A2 FA|B3 F FE ED|E2 (3EEE ED EF|GF GA GF ED|
A3 B A d2 c|B3 d FE ED|E2 (3EEE ED EF|GF GA Bc de|
f2 fg fe dc|BG GF G/A/G FG|A2 AB AG FD|A^G AB cd ea|
f2 fg fe dc|BG GF G2 FG|A2 AB AG FD|A^G AB cd ea|
f3 a fe dc|BG GF G/A/G FG|A2 AB AG FD|ED EF GF ED|
A3 B A d2 c|B3 d FE ED|GF GA GF DA'-|A'B' B'A' GF EF|D8||

